img/contacts/skype.svg

<svg xmlns="http://www.w3.org/2000/svg" width="35" height="34" viewBox="0 0 35 34"><defs><filter id="a" filterUnits="userSpaceOnUse"><feFlood flood-color="#FF2F4F" flood-opacity="1"/><feComposite operator="in" in2="SourceGraphic"/><feBlend in2="SourceGraphic" result="colorOverlay"/></filter></defs><path d="M32.139 31.527c-1.858 1.86-3.663 2.567-6.279 2.462-1.609-.078-2.603-.34-3.793-1.06l-.837-.498-1.518.223c-2.223.327-4.839.091-7.207-.655-1.831-.563-4.644-2.344-6.122-3.864-1.569-1.624-3.191-4.23-3.754-6.024-.745-2.37-.981-4.977-.654-7.216l.223-1.519-.497-.838C.981 11.346.72 10.35.641 8.74.536 6.12 1.243 4.313 3.1 2.453 4.317 1.235 5.507.528 6.959.162c1.086-.262 3.532-.197 4.578.131.432.144 1.164.484 1.635.759l.837.498 1.518-.223c2.223-.327 4.839-.092 7.207.655 1.831.563 4.643 2.344 6.122 3.863 1.569 1.624 3.191 4.23 3.754 6.025.745 2.37.981 4.976.654 7.216l-.223 1.519.497.838c.72 1.192.981 2.187 1.06 3.798.105 2.619-.602 4.427-2.459 6.286zm.235-6.155c-.052-1.506-.222-2.004-1.229-3.562l-.484-.747.248-1.218c.353-1.755.34-4.492-.052-6.011-1.269-5.016-5.075-8.827-10.085-10.097-1.517-.393-4.395-.419-6.069-.053l-1.152.236-.745-.471a15.412 15.412 0 0 0-1.465-.838c-.628-.302-.903-.354-2.158-.38-1.151-.026-1.57.013-2.119.222-1.832.668-3.336 2.201-3.99 4.047-.209.59-.248.996-.209 2.109.052 1.506.222 2.003 1.229 3.562l.484.746-.248 1.218c-.353 1.755-.34 4.492.052 6.012 1.269 5.015 5.075 8.826 10.085 10.097 1.517.393 4.395.419 6.069.052l1.152-.236.745.472c1.557 1.008 2.054 1.179 3.558 1.231 1.112.039 1.517 0 2.106-.21a6.698 6.698 0 0 0 4.055-4.059c.222-.616.261-.996.222-2.122zM16.115 14.607c.824.275 3.65.943 3.99.943.118 0 .641.17 1.177.38 3.545 1.362 4.565 2.697 4.068 5.264-.275 1.388-1.203 2.567-2.538 3.235-1.373.681-4.211 1.153-6.174 1.009-2.668-.197-4.525-.878-5.768-2.122-.667-.655-.811-.891-.968-1.519-.262-1.1-.052-1.677.733-2.056 1.072-.524 1.975-.21 2.733.943.563.851 1.701 1.781 2.473 2.003.392.118 1.177.197 1.962.197 1.111 0 1.425-.053 1.975-.315 1.125-.51 1.648-1.532 1.229-2.344-.431-.838-1.295-1.323-3.047-1.729-2.106-.471-4.814-1.309-5.638-1.741-.785-.393-1.871-1.493-2.106-2.096-.353-.93-.301-2.174.105-2.973.876-1.689 3.021-2.894 5.533-3.117 1.517-.131 3.231.014 4.826.433 1.766.445 3.074 1.309 3.611 2.37.431.825.353 1.388-.262 1.978-.497.458-.589.497-1.282.497-.824 0-1.177-.209-2.459-1.519-.981-.982-1.661-1.27-3.113-1.283-1.452-.013-2.25.248-2.747.903-.824 1.087-.236 2.017 1.687 2.659z" filter="url(#a)"/></svg>

<svg version="1.1" xmlns="http://www.w3.org/2000/svg" xmlns:xlink="http://www.w3.org/1999/xlink" width="35" height="34" viewBox="0 0 35 34"><path id="Skype" d="M32.139,31.527 C30.281,33.387 28.476,34.094 25.860,33.989 C24.251,33.911 23.257,33.649 22.067,32.929 C22.067,32.929 21.230,32.431 21.230,32.431 C21.230,32.431 19.712,32.654 19.712,32.654 C17.489,32.981 14.873,32.745 12.505,31.999 C10.674,31.436 7.861,29.655 6.383,28.135 C4.814,26.511 3.192,23.905 2.629,22.111 C1.884,19.741 1.648,17.134 1.975,14.895 C1.975,14.895 2.198,13.376 2.198,13.376 C2.198,13.376 1.701,12.538 1.701,12.538 C0.981,11.346 0.720,10.350 0.641,8.740 C0.536,6.120 1.243,4.313 3.100,2.453 C4.317,1.235 5.507,0.528 6.959,0.162 C8.045,-0.100 10.491,-0.035 11.537,0.293 C11.969,0.437 12.701,0.777 13.172,1.052 C13.172,1.052 14.009,1.550 14.009,1.550 C14.009,1.550 15.527,1.327 15.527,1.327 C17.750,1.000 20.366,1.235 22.734,1.982 C24.565,2.545 27.377,4.326 28.856,5.845 C30.425,7.469 32.047,10.075 32.610,11.870 C33.355,14.240 33.591,16.846 33.264,19.086 C33.264,19.086 33.041,20.605 33.041,20.605 C33.041,20.605 33.538,21.443 33.538,21.443 C34.258,22.635 34.519,23.630 34.598,25.241 C34.703,27.860 33.996,29.668 32.139,31.527 zM32.374,25.372 C32.322,23.866 32.152,23.368 31.145,21.810 C31.145,21.810 30.661,21.063 30.661,21.063 C30.661,21.063 30.909,19.845 30.909,19.845 C31.262,18.090 31.249,15.353 30.857,13.834 C29.588,8.818 25.782,5.007 20.772,3.737 C19.255,3.344 16.377,3.318 14.703,3.684 C14.703,3.684 13.551,3.920 13.551,3.920 C13.551,3.920 12.806,3.449 12.806,3.449 C12.400,3.174 11.733,2.807 11.341,2.611 C10.713,2.309 10.438,2.257 9.183,2.231 C8.032,2.205 7.613,2.244 7.064,2.453 C5.232,3.121 3.728,4.654 3.074,6.500 C2.865,7.090 2.826,7.496 2.865,8.609 C2.917,10.115 3.087,10.612 4.094,12.171 C4.094,12.171 4.578,12.917 4.578,12.917 C4.578,12.917 4.330,14.135 4.330,14.135 C3.977,15.890 3.990,18.627 4.382,20.147 C5.651,25.162 9.457,28.973 14.467,30.244 C15.984,30.637 18.862,30.663 20.536,30.296 C20.536,30.296 21.688,30.060 21.688,30.060 C21.688,30.060 22.433,30.532 22.433,30.532 C23.990,31.540 24.487,31.711 25.991,31.763 C27.103,31.802 27.508,31.763 28.097,31.553 C29.980,30.886 31.498,29.366 32.152,27.494 C32.374,26.878 32.413,26.498 32.374,25.372 zM16.115,14.607 C16.939,14.882 19.765,15.550 20.105,15.550 C20.223,15.550 20.746,15.720 21.282,15.930 C24.827,17.292 25.847,18.627 25.350,21.194 C25.075,22.582 24.147,23.761 22.812,24.429 C21.439,25.110 18.601,25.582 16.638,25.438 C13.970,25.241 12.113,24.560 10.870,23.316 C10.203,22.661 10.059,22.425 9.902,21.797 C9.640,20.697 9.850,20.120 10.635,19.741 C11.707,19.217 12.610,19.531 13.368,20.684 C13.931,21.535 15.069,22.465 15.841,22.687 C16.233,22.805 17.018,22.884 17.803,22.884 C18.914,22.884 19.228,22.831 19.778,22.569 C20.903,22.059 21.426,21.037 21.007,20.225 C20.576,19.387 19.712,18.902 17.960,18.496 C15.854,18.025 13.146,17.187 12.322,16.755 C11.537,16.362 10.451,15.262 10.216,14.659 C9.863,13.729 9.915,12.485 10.321,11.686 C11.197,9.997 13.342,8.792 15.854,8.569 C17.371,8.438 19.085,8.583 20.680,9.002 C22.446,9.447 23.754,10.311 24.291,11.372 C24.722,12.197 24.644,12.760 24.029,13.350 C23.532,13.808 23.440,13.847 22.747,13.847 C21.923,13.847 21.570,13.638 20.288,12.328 C19.307,11.346 18.627,11.058 17.175,11.045 C15.723,11.032 14.925,11.293 14.428,11.948 C13.604,13.035 14.192,13.965 16.115,14.607 z" fill="#FF2F4F" /></svg>
